X:1
T:Title
%%score { 1 | ( 2 3 ) }
L:1/8
M:4/4
K:Eb
V:1 treble nm="Grand Piano"
V:2 bass 
V:3 bass 
V:1
 z4 z2[Q:1/4=100] E>F | G>G G>A G>F E>F | G>[FA] [GB]>[Ac] [GB]2 B>B | e>e d>c B>c B>G | %4
 [DF]6 [DF]>[EG] | [FA]>[FA] [=EG]>[FA] [Bd]>[Ac] [GB]>[FA] | [EG]>[FA] [GB]>[Ac] [GB]2 [GB]>[Ge] | %7
 d>d F>d c>c F>c |[M:3/4] [DB]6 |[M:1/4] c>d |[M:4/4] [Ge]>[Gd] [Ge]>[Gc] [Ad]>[Ad] [FA]>[Ad] | %11
 [Gc]4 [B,GB]2 [Gc]>[EG] | [GB]>[FA] [DF]>[EG] [FA]>[GB] [Bd]>[Ac] | [B,GB]6 [Ac]>[Ad] | %14
 [Ge]>[Ge] [Ad]>[Ac] [GB]2 [EG]>[EG] | %15
[M:17/16] [EB]>[A,EA][A,E]>[=A,EF][B,EG]-<[B,EG][E_Gd]3/2[EGc] | %16
[M:4/4] [EGB]>[EGc] [EGB]>[G,E] [B,EG]>[B,EG] [A,DF]>[A,B,F][Q:1/4=98][Q:1/4=96][Q:1/4=94][Q:1/4=92][Q:1/4=90][Q:1/4=88][Q:1/4=85][Q:1/4=83][Q:1/4=81][Q:1/4=79][Q:1/4=77] | %17
[M:3/4] [G,B,E]6 |] %18
V:2
 z4 z2 [E,G,B,]>[E,A,B,] | [E,B,E]>[E,B,E] [E,B,E]>[E,CE] [E,B,E]>[E,A,B,] [E,G,B,]>[E,A,B,] | %2
 [E,B,E]>[E,B,] [E,E]>[E,E] [E,E]2 [G,B,E]>[G,B,E] | %3
 [A,CE]>[A,CE] [A,B,E]>[A,E] [E,G,E]>[E,A,E] [E,G,E]>[E,B,E] | [B,,B,]6 [B,,B,]>[B,,B,] | %5
 [B,,B,]>[B,,B,] [B,,B,]>[B,,B,] [B,,B,]>[B,,B,] [B,,B,]>[B,,B,] | %6
 [E,B,]>[E,B,] [E,E]>[E,E] [E,E]2 [E,E]>[E,B,] | %7
 [F,B,F]>[F,B,F] [F,B,D]>[F,B,F] [F,=A,E]>[F,A,E] [F,A,E]>[F,E] |[M:3/4] [B,,F,]6 | %9
[M:1/4][K:treble] [B,A]>[B,A] | %10
[M:4/4][K:bass] [E,B,]>[E,B,] [E,B,]>[E,B,] [F,B,]>[F,B,] [D,B,]>[B,,B,] | [E,B,]4 z4 | %12
 [B,,B,]>[B,,B,] [B,,B,]>[B,,B,] [B,,B,]>[B,,B,] [B,,B,]>[B,,B,] | z2 B,,2 E,2 B,>B, | %14
 [E,B,]>[E,B,] [E,C]>[E,D] [E,E]2 [_D,B,]>[D,B,] |[M:17/16] [C,A,]>C,C,>C,B,,-<B,,=A,,3/2A,, | %16
[M:4/4] B,,>B,, B,,>C, B,,>B,, B,,>B,, |[M:3/4] E,6 |] %18
V:3
 x8 | x8 | x8 | x8 | x8 | x8 | x8 | x8 |[M:3/4] x6 |[M:1/4][K:treble] x2 |[M:4/4][K:bass] x8 | %11
 z2 B,,2 E,2 [E,B,]>[E,B,] | x8 | E,4 z4 | x8 |[M:17/16] x17/2 |[M:4/4] x8 |[M:3/4] x6 |] %18

